X: 73
T:Preston Tally-Ho !
% Nottingham Music Database
S:Chris Dewhurst (1983), via PR
M:4/4
L:1/4
K:G
G"D7"A ^A|"G"BG AG|BG AG|"E7"FE FE-|E E2/3F2/3E2/3 ^DE|
"Am"BA BA|"A7"BA G/2E3/2|"D7"A2 -"Am"A2|"D"AG "D7"A^A|"G"BG AG|BG AG|
"E7"FE FE-|E E2/3F2/3E2/3 ^DE|"Am"B3/2A/2 GE|"D7"B2 B2|"G"G4-|GG F=F||
"C"EG GG|"Cm"AG2A|"G"BB AG-|"Em"GG AB|"A"^c3/2c/2 BA|"Em"Bd "A"^cA|\
"D"d2 -"Am"d2|"D"dD "D7"EG|
"G"BG AG|BG AG|"E7"FE FE-|E E2/3F2/3E2/3 ^DE|"Am"B3/2A/2 GE|"D7"B2 B2|"G"G4-|G||


